app/assets/images/payment_icons/twig_pay.svg

<svg xmlns="http://www.w3.org/2000/svg" role="img" viewBox="0 0 38 24" width="38" height="24"  fill="none" aria-labelledby="pi-twig_pay">
<title id="pi-twig_pay">Twig Pay</title>
<path d="M36 24H2C0.9 24 0 23.1 0 22V2C0 0.9 0.9 0 2 0H36C37.1 0 38 0.9 38 2V22C38 23.1 37.1 24 36 24Z" fill="url(#paint0_linear_1_3)"/>
<g opacity="0.07">
<path d="M36 1C36.6 1 37 1.4 37 2V22C37 22.6 36.6 23 36 23H2C1.4 23 1 22.6 1 22V2C1 1.4 1.4 1 2 1H36ZM36 0H2C0.9 0 0 0.9 0 2V22C0 23.1 0.9 24 2 24H36C37.1 24 38 23.1 38 22V2C38 0.9 37.1 0 36 0Z" fill="black"/>
</g>
<path d="M27.6 11.1C27.7 11.2 27.7 11.3 27.7 11.5C27.7 11.6 27.7 11.8 27.6 11.9C27.5 12 27.4 12 27.2 12H26.7V11H27.2C27.4 10.9 27.5 11 27.6 11.1ZM29.3 12.4H30.2L29.7 11.1L29.3 12.4ZM34.6 9.99999V13.9C34.6 14.1 34.5 14.2 34.3 14.2H25.6C25.4 14.2 25.3 14.1 25.3 13.9V9.99999C25.3 9.79999 25.4 9.69999 25.6 9.69999H34.3C34.4 9.69999 34.6 9.89999 34.6 9.99999ZM28.1 12.3C28.3 12.1 28.4 11.8 28.4 11.5C28.4 11.2 28.3 10.9 28.1 10.7C27.9 10.5 27.6 10.4 27.3 10.4H26.7H26.5H26.3C26.2 10.4 26.2 10.4 26.2 10.5V13.6C26.2 13.7 26.2 13.7 26.3 13.7H26.8C26.9 13.7 26.9 13.7 26.9 13.6V12.6H27.4C27.6 12.6 27.9 12.5 28.1 12.3ZM31.4 13.5L30.1 10.4C30.1 10.3 30 10.3 30 10.3H29.6C29.5 10.3 29.5 10.3 29.5 10.4L28.2 13.5C28.2 13.6 28.2 13.6 28.3 13.6H28.8C28.9 13.6 28.9 13.6 28.9 13.5L29.1 12.9H30.4L30.6 13.5C30.6 13.6 30.7 13.6 30.7 13.6H31.2C31.4 13.6 31.4 13.6 31.4 13.5ZM33.9 10.3H33.4C33.3 10.3 33.3 10.3 33.3 10.4L32.6 11.7L31.9 10.4C31.9 10.3 31.8 10.3 31.8 10.3H31.3C31.2 10.3 31.2 10.3 31.2 10.4L32.3 12.3V13.5C32.3 13.6 32.3 13.6 32.4 13.6H32.9C33 13.6 33 13.6 33 13.5V12.3L34.1 10.4C34 10.3 33.9 10.3 33.9 10.3ZM16.8 6.89999C16.4 6.89999 16.1 7.19999 16.1 7.59999C16.1 7.99999 16.4 8.29999 16.8 8.29999C17.2 8.29999 17.5 7.99999 17.5 7.59999C17.5 7.29999 17.2 6.89999 16.8 6.89999ZM17.4 9.79999V14C17.4 14.1 17.3 14.1 17.3 14.1H16.5C16.4 14.1 16.4 14.1 16.4 14V9.79999C16.4 9.69999 16.4 9.69999 16.5 9.69999H17.3C17.3 9.69999 17.4 9.79999 17.4 9.79999ZM22.9 15.4C22.9 16.4 22 17.1 20.6 17.1C19.2 17.1 18.3 16.5 18.3 15.4C18.3 15.1 18.4 14.8 18.6 14.6C18.4 14.4 18.3 14.1 18.3 13.8C18.3 13.4 18.5 13 18.8 12.8C18.5 12.5 18.4 12 18.4 11.6C18.4 10.5 19.2 9.59999 20.3 9.59999C20.5 9.59999 20.8 9.69999 21.1 9.69999H22.5C22.6 9.69999 22.7 9.79999 22.7 9.89999V10.4C22.7 10.5 22.6 10.6 22.5 10.6H22C22.2 10.9 22.3 11.2 22.3 11.5C22.3 12.6 21.4 13.5 20.3 13.4C20 13.4 19.7 13.3 19.5 13.2C19.4 13.3 19.3 13.4 19.3 13.6C19.3 13.8 19.5 13.9 19.8 13.9H21.2C22.2 14 22.9 14.5 22.9 15.4ZM19.4 11.5C19.4 12 19.8 12.4 20.3 12.4C20.8 12.4 21.2 12 21.2 11.5C21.2 11 20.8 10.6 20.3 10.6C19.8 10.6 19.4 11 19.4 11.5ZM21.8 15.5C21.8 15.2 21.6 15 21.1 15H20C19.5 15 19.3 15.1 19.3 15.5C19.3 15.9 19.8 16.1 20.6 16.1C21.4 16 21.8 15.8 21.8 15.5ZM15.6 9.79999C15.6 9.79999 15.6 9.89999 15.6 9.79999L13.8 14.1C13.8 14.2 13.7 14.2 13.6 14.2H13C12.9 14.2 12.8 14.1 12.8 14.1L11.6 11.1L10.4 14.1C10.4 14.2 10.3 14.2 10.2 14.2H9.5C9.4 14.2 9.3 14.1 9.3 14.1L7.5 9.89999V9.79999C7.5 9.69999 7.6 9.69999 7.6 9.69999H8.5C8.6 9.69999 8.7 9.79999 8.7 9.79999L9.8 12.9L10.9 9.79999C10.9 9.69999 11 9.69999 11.1 9.69999H11.9C12 9.69999 12.1 9.79999 12.1 9.79999L13.2 12.9L14.3 9.79999C14.3 9.69999 14.4 9.69999 14.5 9.69999H15.4C15.6 9.69999 15.6 9.69999 15.6 9.79999ZM7.8 13.7C7.4 14.1 6.9 14.3 6.3 14.3C5.2 14.3 4.3 13.5 4.3 12.4V10.8H3.6C3.5 10.8 3.5 10.7 3.5 10.7V9.89999C3.5 9.79999 3.6 9.79999 3.6 9.79999H4.4V8.09999V7.99999C4.4 7.89999 4.5 7.89999 4.5 7.89999H5.4C5.5 7.89999 5.5 7.99999 5.5 7.99999V9.69999H6.1C6.2 9.69999 6.3 9.79999 6.3 9.79999L6.7 10.6C6.7 10.7 6.7 10.7 6.6 10.7H5.5V12.3C5.5 12.8 5.9 13.1 6.3 13.1C6.7 13.1 7 12.8 7.2 12.6C7.3 12.5 7.5 12.5 7.6 12.6L7.9 13.3C7.9 13.5 7.9 13.6 7.8 13.7Z" fill="white"/>
<defs>
<linearGradient id="paint0_linear_1_3" x1="1.6589" y1="21.0816" x2="36.95" y2="2.5994" gradientUnits="userSpaceOnUse">
<stop stop-color="#00DAB9"/>
<stop offset="0.9975" stop-color="#72B0DA"/>
</linearGradient>
</defs>
</svg>

<svg xmlns="http://www.w3.org/2000/svg" role="img" viewBox="0 0 38 24" width="38" height="24" fill="none" aria-labelledby="pi-twig_pay"><title id="pi-twig_pay">Twig Pay</title><path d="M36 24H2c-1.1 0-2-.9-2-2V2C0 .9.9 0 2 0h34c1.1 0 2 .9 2 2v20c0 1.1-.9 2-2 2z" fill="url(#paint0_linear_1_3)"/><path d="M36 1c.6 0 1 .4 1 1v20c0 .6-.4 1-1 1H2c-.6 0-1-.4-1-1V2c0-.6.4-1 1-1h34zm0-1H2C.9 0 0 .9 0 2v20c0 1.1.9 2 2 2h34c1.1 0 2-.9 2-2V2c0-1.1-.9-2-2-2z" fill="#000" opacity=".07"/><path d="M27.6 11.1c.1.1.1.2.1.4 0 .1 0 .3-.1.4-.1.1-.2.1-.4.1h-.5v-1h.5c.2-.1.3 0 .4.1zm1.7 1.3h.9l-.5-1.3-.4 1.3zm5.3-2.4v3.9c0 .2-.1.3-.3.3h-8.7c-.2 0-.3-.1-.3-.3V10c0-.2.1-.3.3-.3h8.7c.1 0 .3.2.3.3zm-6.5 2.3c.2-.2.3-.5.3-.8 0-.3-.1-.6-.3-.8-.2-.2-.5-.3-.8-.3h-1c-.1 0-.1 0-.1.1v3.1c0 .1 0 .1.1.1h.5c.1 0 .1 0 .1-.1v-1h.5c.2 0 .5-.1.7-.3zm3.3 1.2l-1.3-3.1c0-.1-.1-.1-.1-.1h-.4c-.1 0-.1 0-.1.1l-1.3 3.1c0 .1 0 .1.1.1h.5c.1 0 .1 0 .1-.1l.2-.6h1.3l.2.6c0 .1.1.1.1.1h.5c.2 0 .2 0 .2-.1zm2.5-3.2h-.5c-.1 0-.1 0-.1.1l-.7 1.3-.7-1.3c0-.1-.1-.1-.1-.1h-.5c-.1 0-.1 0-.1.1l1.1 1.9v1.2c0 .1 0 .1.1.1h.5c.1 0 .1 0 .1-.1v-1.2l1.1-1.9c-.1-.1-.2-.1-.2-.1zM16.8 6.9c-.4 0-.7.3-.7.7 0 .4.3.7.7.7.4 0 .7-.3.7-.7 0-.3-.3-.7-.7-.7zm.6 2.9V14c0 .1-.1.1-.1.1h-.8c-.1 0-.1 0-.1-.1V9.8c0-.1 0-.1.1-.1h.8l.1.1zm5.5 5.6c0 1-.9 1.7-2.3 1.7s-2.3-.6-2.3-1.7c0-.3.1-.6.3-.8-.2-.2-.3-.5-.3-.8 0-.4.2-.8.5-1-.3-.3-.4-.8-.4-1.2 0-1.1.8-2 1.9-2 .2 0 .5.1.8.1h1.4c.1 0 .2.1.2.2v.5c0 .1-.1.2-.2.2H22c.2.3.3.6.3.9 0 1.1-.9 2-2 1.9-.3 0-.6-.1-.8-.2-.1.1-.2.2-.2.4s.2.3.5.3h1.4c1 .1 1.7.6 1.7 1.5zm-3.5-3.9c0 .5.4.9.9.9s.9-.4.9-.9-.4-.9-.9-.9-.9.4-.9.9zm2.4 4c0-.3-.2-.5-.7-.5H20c-.5 0-.7.1-.7.5s.5.6 1.3.6c.8-.1 1.2-.3 1.2-.6zm-6.2-5.7s0 .1 0 0l-1.8 4.3c0 .1-.1.1-.2.1H13c-.1 0-.2-.1-.2-.1l-1.2-3-1.2 3c0 .1-.1.1-.2.1h-.7c-.1 0-.2-.1-.2-.1L7.5 9.9v-.1c0-.1.1-.1.1-.1h.9c.1 0 .2.1.2.1l1.1 3.1 1.1-3.1c0-.1.1-.1.2-.1h.8c.1 0 .2.1.2.1l1.1 3.1 1.1-3.1c0-.1.1-.1.2-.1h.9c.2 0 .2 0 .2.1zm-7.8 3.9c-.4.4-.9.6-1.5.6-1.1 0-2-.8-2-1.9v-1.6h-.7c-.1 0-.1-.1-.1-.1v-.8c0-.1.1-.1.1-.1h.8V8c0-.1.1-.1.1-.1h.9c.1 0 .1.1.1.1v1.7h.6c.1 0 .2.1.2.1l.4.8c0 .1 0 .1-.1.1H5.5v1.6c0 .5.4.8.8.8s.7-.3.9-.5c.1-.1.3-.1.4 0l.3.7c0 .2 0 .3-.1.4z" fill="#fff"/><defs><linearGradient id="paint0_linear_1_3" x1="1.659" y1="21.082" x2="36.95" y2="2.599" gradientUnits="userSpaceOnUse"><stop stop-color="#00DAB9"/><stop offset=".998" stop-color="#72B0DA"/></linearGradient></defs></svg>
